X: 120
T: Pollonesse #120
M: 3/4
L: 1/16
R: Pollonesse
K: Gm
Q: 110
D2|:[B,G]4 G2^F2 G2A2|B4 B2A2 B2c2|d2cd e2dc d2cB|cBAG ^FGAF D4|
|G4 G2^F2 G2A2|B4 B2A2 B2c2|d2cd e2dc d2cB|1BAGF G4z2D2:|2 BAGF G8|]
|:d4 d2e2 d2c2|B2G2 B2F2 D2B,2|f4 f2g2 f2e2|d2c2 dcBc B4|
|b4b2a2 a2g2|a3g ^fagf d4|b4b2a2 a2g2|a3g ^fagf d4|
|d2ed c2dc B2cB|BAG^F G8:|
N: Hin Håles Polska
N: Jämför nr. 67